apps/scalable/seamonkey.svg

<svg xmlns="http://www.w3.org/2000/svg" style="isolation:isolate" width="256" height="256"><defs><filter id="a" width="270.648" height="254.338" x="-7.32" y="2.95" filterUnits="userSpaceOnUse"><feGaussianBlur xmlns="http://www.w3.org/2000/svg" in="SourceGraphic" stdDeviation="4.294"/><feOffset xmlns="http://www.w3.org/2000/svg" dy="4" result="pf_100_offsetBlur"/><feFlood xmlns="http://www.w3.org/2000/svg" flood-opacity=".4"/><feComposite xmlns="http://www.w3.org/2000/svg" in2="pf_100_offsetBlur" operator="in" result="pf_100_dropShadow"/><feBlend xmlns="http://www.w3.org/2000/svg" in="SourceGraphic" in2="pf_100_dropShadow"/></filter></defs><g filter="url(#a)"><linearGradient id="b" x1=".25" x2=".75" y1=".036" y2=".902" gradientTransform="matrix(244.648 0 0 228.338 5.676 11.947)" gradientUnits="userSpaceOnUse"><stop offset="0%" stop-color="#77a3d1"/><stop offset="100%" stop-color="#315275"/></linearGradient><path fill="url(#b)" d="M165.685 11.947c74.055 0 84.639 10.557 84.639 84.544v59.251c0 73.986-10.584 84.543-84.639 84.543h-75.37c-74.055 0-84.639-10.557-84.639-84.543V96.491c0-73.987 10.584-84.544 84.639-84.544h75.37z"/></g><path fill="#4882E3" d="M5.676 100.552v55.024c0 9.248.165 17.505.599 24.875.217 3.685.501 7.147.866 10.4.364 3.254.808 6.298 1.345 9.147.538 2.848 1.168 5.501 1.905 7.97.736 2.47 1.578 4.756 2.539 6.872a39.5 39.5 0 0 0 3.252 5.847 33.261 33.261 0 0 0 4.043 4.905 33.342 33.342 0 0 0 4.91 4.037 39.71 39.71 0 0 0 5.855 3.248c2.118.959 4.407 1.8 6.879 2.535 2.472.735 5.127 1.366 7.979 1.902 2.851.537 5.899.98 9.156 1.344 3.257.364 6.724.647 10.412.863 7.377.433 15.641.598 24.898.598h75.372c9.257 0 17.521-.165 24.898-.598 3.688-.216 7.155-.499 10.412-.863 3.257-.364 6.305-.807 9.156-1.344 2.852-.536 5.507-1.167 7.979-1.902 2.472-.735 4.761-1.576 6.879-2.535a39.71 39.71 0 0 0 5.855-3.248 33.342 33.342 0 0 0 4.91-4.037 33.261 33.261 0 0 0 4.043-4.905 39.5 39.5 0 0 0 3.252-5.847c.961-2.116 1.803-4.402 2.539-6.872.737-2.469 1.367-5.122 1.905-7.97.537-2.849.981-5.893 1.345-9.147.365-3.253.649-6.715.866-10.4.434-7.37.599-15.627.599-24.875v-54.545c-18.391-26.517-65.9-9.852-122.097-9.852-55.865 0-103.682-16.477-122.551 9.373z"/><path fill="#7767C0" d="M5.676 126.504v25.129c6.525-.57 15.707-.083 29.24 3.156 37.222 8.907 89.875 3.897 119.779-5.328 29.905-9.226 60.294-12.806 77.791-13.76 6.875-.375 12.867 1.568 17.838 4.002V117.57c-20.391 5.556-57.03 15.651-86.287 16.945-54.44-2.787-95.575-36.899-158.361-8.011z"/><path fill="#595AFD" d="M250.123 163.926c.041-2.885.201-5.246.201-8.35V132.34c-27.715 4.008-59.039 9.674-85.502 11.773 18.06 2.153 33.579 10.678 45 13.432 19.59 4.723 32.105 6.313 40.301 6.381zM5.676 128.664v25.406c7.225.672 17.654 2.762 32.98 6.43 36.335 8.695 70.825-5.209 100.018-14.215a60.106 60.106 0 0 1 5.328-1.367h-.092C96.037 133.014 75.3 130.481 5.676 128.664z"/><path d="M5.676 121.515v22.246c4.731-2.203 10.293-3.894 16.631-3.548 17.497.953 63.615 34.203 93.519 43.429 29.905 9.226 66.829-21.768 104.051-30.675 13.614-3.259 23.482-2.851 30.447-1.155v-20.885c-3.664.274-7.629.846-11.67 2.188-13.361 4.454-56.623 15.144-89.086 14.252-41.646-2.712-74.195-35.437-114.652-35.182l-.018-.002c-9.191.057-18.996 4.535-29.222 9.332z" opacity=".2"/><path fill="#8A72FF" d="M5.676 116.842v22.246c4.731-2.204 10.293-3.897 16.631-3.551 17.497.955 63.615 34.204 93.519 43.43 29.905 9.225 66.829-21.766 104.051-30.674 13.614-3.258 23.482-2.852 30.447-1.157V126.25c-3.664.274-7.629.845-11.67 2.187-13.361 4.454-56.623 15.144-89.086 14.252-41.646-2.712-74.195-35.436-114.652-35.181h-.018c-9.191.056-18.996 4.536-29.222 9.334z"/><path fill="#50DDEE" d="M159.716 40.982c-10.64-.528-21.053 5.569-27.25 14.101-.004.002-.007.003-.011.011-7.391 10.317-11.288 24.602-14.52 36.421v.012c-4.468 16.55-12.013 32.214-21.511 46.523-19.688 29.516-45.278 55.202-78.543 68.169a1.758 1.758 0 0 0-.57.367l-1.338 1.246c-1.264 1.187-.286 3.3 1.437 3.105 23.326-2.74 38.337-20.104 55.544-33.891 13.832-1.355 29.729-2.225 43.101-5.795.007-.002.014-.003.021-.011 18.792-5.283 39.176-13.616 52.001-29.455 12.783-15.677 14.929-37.494 10.259-56.395-1.588-7.554-8.103-15.295-16.357-16.928-.222-.781-.436-1.551-.655-2.338 1.79-1.961 7.574-4.07 9.349-6.64 1.973-2.855 3.356-8.538 2.345-12.452a1.803 1.803 0 0 0-.268-.578c-2.176-3.139-9.452-5.463-13.038-5.469l.004-.003z"/><g opacity=".4"><linearGradient id="c" x1=".517" x2=".517" y2="1"><stop offset="0%" stop-color="#fff"/><stop offset="12.5%" stop-opacity=".098" stop-color="#fff"/><stop offset="92.5%" stop-opacity=".098"/><stop offset="100%" stop-opacity=".498"/></linearGradient><path fill="none" stroke="url(#c)" stroke-linecap="round" stroke-linejoin="round" stroke-width="4.077" d="M165.685 11.947c74.055 0 84.639 10.557 84.639 84.544v59.251c0 73.986-10.584 84.543-84.639 84.543h-75.37c-74.055 0-84.639-10.557-84.639-84.543V96.491c0-73.987 10.584-84.544 84.639-84.544h75.37z" vector-effect="non-scaling-stroke"/></g></svg>

<svg xmlns="http://www.w3.org/2000/svg" style="isolation:isolate" width="256" height="256" viewBox="0 0 256 256">
 <defs>
  <filter id="n2RJXC7iI0VaAWxRG6fdOQqOZQ9GDO1j" width="270.648" height="254.338" x="-7.32" y="2.95" filterUnits="userSpaceOnUse">
   <feGaussianBlur xmlns="http://www.w3.org/2000/svg" in="SourceGraphic" stdDeviation="4.294"/>
   <feOffset xmlns="http://www.w3.org/2000/svg" dx="0" dy="4" result="pf_100_offsetBlur"/>
   <feFlood xmlns="http://www.w3.org/2000/svg" flood-opacity=".4"/>
   <feComposite xmlns="http://www.w3.org/2000/svg" in2="pf_100_offsetBlur" operator="in" result="pf_100_dropShadow"/>
   <feBlend xmlns="http://www.w3.org/2000/svg" in="SourceGraphic" in2="pf_100_dropShadow" mode="normal"/>
  </filter>
 </defs>
 <g filter="url(#n2RJXC7iI0VaAWxRG6fdOQqOZQ9GDO1j)">
  <linearGradient id="_lgradient_0" x1=".25" x2=".75" y1=".036" y2=".902" gradientTransform="matrix(244.648,0,0,228.338,5.676,11.947)" gradientUnits="userSpaceOnUse">
   <stop offset="0%" style="stop-color:rgb(119,163,209)"/>
   <stop offset="100%" style="stop-color:rgb(49,82,117)"/>
  </linearGradient>
  <path fill="url(#_lgradient_0)" d="M 165.685 11.947 C 239.74 11.947 250.324 22.504 250.324 96.491 L 250.324 155.742 C 250.324 229.728 239.74 240.285 165.685 240.285 L 90.315 240.285 C 16.26 240.285 5.676 229.728 5.676 155.742 L 5.676 96.491 C 5.676 22.504 16.26 11.947 90.315 11.947 L 165.685 11.947 Z"/>
 </g>
 <g>
  <path fill="#4882E3" d="M 5.676 100.552 L 5.676 155.576 C 5.676 164.824 5.841 173.081 6.275 180.451 C 6.492 184.136 6.776 187.598 7.141 190.851 C 7.505 194.105 7.949 197.149 8.486 199.998 C 9.024 202.846 9.654 205.499 10.391 207.968 C 11.127 210.438 11.969 212.724 12.93 214.84 C 13.891 216.955 14.97 218.899 16.182 220.687 C 17.393 222.475 18.737 224.106 20.225 225.592 C 21.712 227.077 23.345 228.419 25.135 229.629 C 26.925 230.838 28.872 231.917 30.99 232.877 C 33.108 233.836 35.397 234.677 37.869 235.412 C 40.341 236.147 42.996 236.778 45.848 237.314 C 48.699 237.851 51.747 238.294 55.004 238.658 C 58.261 239.022 61.728 239.305 65.416 239.521 C 72.793 239.954 81.057 240.119 90.314 240.119 L 165.686 240.119 C 174.943 240.119 183.207 239.954 190.584 239.521 C 194.272 239.305 197.739 239.022 200.996 238.658 C 204.253 238.294 207.301 237.851 210.152 237.314 C 213.004 236.778 215.659 236.147 218.131 235.412 C 220.603 234.677 222.892 233.836 225.01 232.877 C 227.128 231.917 229.075 230.838 230.865 229.629 C 232.655 228.419 234.288 227.077 235.775 225.592 C 237.263 224.106 238.607 222.475 239.818 220.687 C 241.03 218.899 242.109 216.955 243.07 214.84 C 244.031 212.724 244.873 210.438 245.609 207.968 C 246.346 205.499 246.976 202.846 247.514 199.998 C 248.051 197.149 248.495 194.105 248.859 190.851 C 249.224 187.598 249.508 184.136 249.725 180.451 C 250.159 173.081 250.324 164.824 250.324 155.576 L 250.324 101.031 C 231.933 74.514 184.424 91.179 128.227 91.179 C 72.362 91.179 24.545 74.702 5.676 100.552 Z"/>
  <path fill="#7767C0" d="M 5.676 126.504 L 5.676 151.633 C 12.201 151.063 21.383 151.55 34.916 154.789 C 72.138 163.696 124.791 158.686 154.695 149.461 C 184.6 140.235 214.989 136.655 232.486 135.701 C 239.361 135.326 245.353 137.269 250.324 139.703 L 250.324 117.57 C 229.933 123.126 193.294 133.221 164.037 134.515 C 109.597 131.728 68.462 97.616 5.676 126.504 Z"/>
  <path fill="#595AFD" d="M 250.123 163.926 C 250.164 161.041 250.324 158.68 250.324 155.576 L 250.324 132.34 C 222.609 136.348 191.285 142.014 164.822 144.113 C 182.882 146.266 198.401 154.791 209.822 157.545 C 229.412 162.268 241.927 163.858 250.123 163.926 Z"/>
  <path fill="#595AFD" d="M 5.676 128.664 L 5.676 154.07 C 12.901 154.742 23.33 156.832 38.656 160.5 C 74.991 169.195 109.481 155.291 138.674 146.285 C 140.461 145.734 142.245 145.288 144.002 144.918 C 143.983 144.917 143.93 144.918 143.91 144.918 C 96.037 133.014 75.3 130.481 5.676 128.664 Z"/>
  <g opacity=".2">
   <path d="M 5.676 121.515 L 5.676 143.761 C 10.407 141.558 15.969 139.867 22.307 140.213 C 39.804 141.166 85.922 174.416 115.826 183.642 C 145.731 192.868 182.655 161.874 219.877 152.967 C 233.491 149.708 243.359 150.116 250.324 151.812 L 250.324 130.927 C 246.66 131.201 242.695 131.773 238.654 133.115 C 225.293 137.569 182.031 148.259 149.568 147.367 C 107.922 144.655 75.373 111.93 34.916 112.185 L 34.898 112.183 C 25.707 112.24 15.902 116.718 5.676 121.515 Z"/>
  </g>
  <path fill="#8A72FF" d="M 5.676 116.842 L 5.676 139.088 C 10.407 136.884 15.969 135.191 22.307 135.537 C 39.804 136.492 85.922 169.741 115.826 178.967 C 145.731 188.192 182.655 157.201 219.877 148.293 C 233.491 145.035 243.359 145.441 250.324 147.136 L 250.324 126.25 C 246.66 126.524 242.695 127.095 238.654 128.437 C 225.293 132.891 182.031 143.581 149.568 142.689 C 107.922 139.977 75.373 107.253 34.916 107.508 L 34.898 107.508 C 25.707 107.564 15.902 112.044 5.676 116.842 Z"/>
  <path fill="#50DDEE" d="M 159.716 40.982 C 149.076 40.454 138.663 46.551 132.466 55.083 C 132.462 55.085 132.459 55.086 132.455 55.094 C 125.064 65.411 121.167 79.696 117.935 91.515 C 117.935 91.518 117.935 91.518 117.935 91.527 C 113.467 108.077 105.922 123.741 96.424 138.05 C 76.736 167.566 51.146 193.252 17.881 206.219 C 17.67 206.3 17.476 206.43 17.311 206.586 L 15.973 207.832 C 14.709 209.019 15.687 211.132 17.41 210.937 C 40.736 208.197 55.747 190.833 72.954 177.046 C 86.786 175.691 102.683 174.821 116.055 171.251 C 116.062 171.249 116.069 171.248 116.076 171.24 C 134.868 165.957 155.252 157.624 168.077 141.785 C 180.86 126.108 183.006 104.291 178.336 85.39 C 176.748 77.836 170.233 70.095 161.979 68.462 C 161.757 67.681 161.543 66.911 161.324 66.124 C 163.114 64.163 168.898 62.054 170.673 59.484 C 172.646 56.629 174.029 50.946 173.018 47.032 C 172.964 46.825 172.873 46.63 172.75 46.454 C 170.574 43.315 163.298 40.991 159.712 40.985 L 159.716 40.982 Z"/>
 </g>
 <g opacity=".4">
  <linearGradient id="_lgradient_1" x1=".517" x2=".517" y1="0" y2="1">
   <stop offset="0%" style="stop-color:rgb(255,255,255)"/>
   <stop offset="12.5%" stop-opacity=".098" style="stop-color:rgb(255,255,255)"/>
   <stop offset="92.5%" stop-opacity=".098" style="stop-color:rgb(0,0,0)"/>
   <stop offset="100%" stop-opacity=".498" style="stop-color:rgb(0,0,0)"/>
  </linearGradient>
  <path fill="none" stroke="url(#_lgradient_1)" stroke-linecap="round" stroke-linejoin="round" stroke-width="4.077" d="M 165.685 11.947 C 239.74 11.947 250.324 22.504 250.324 96.491 L 250.324 155.742 C 250.324 229.728 239.74 240.285 165.685 240.285 L 90.315 240.285 C 16.26 240.285 5.676 229.728 5.676 155.742 L 5.676 96.491 C 5.676 22.504 16.26 11.947 90.315 11.947 L 165.685 11.947 Z" vector-effect="non-scaling-stroke"/>
 </g>
</svg>
